flaticon/education/medal.svg

<svg xmlns="http://www.w3.org/2000/svg" width="32" height="32" viewBox="0 0 24 24">
    <path d="M 12 14 C 10.878906 14 10 14.878906 10 16 C 10 17.121094 10.878906 18 12 18 C 13.121094 18 14 17.121094 14 16 C 14 14.878906 13.121094 14 12 14 Z M 12 17.199219 C 11.320312 17.199219 10.800781 16.679688 10.800781 16 C 10.800781 15.320312 11.320312 14.800781 12 14.800781 C 12.679688 14.800781 13.199219 15.320312 13.199219 16 C 13.199219 16.679688 12.679688 17.199219 12 17.199219 Z M 12 17.199219"/>
    <path d="M 16 9.921875 L 16 0.800781 L 17.199219 0.800781 C 17.441406 0.800781 17.601562 0.640625 17.601562 0.398438 C 17.601562 0.160156 17.441406 0 17.199219 0 L 6.800781 0 C 6.558594 0 6.398438 0.160156 6.398438 0.398438 C 6.398438 0.640625 6.558594 0.800781 6.800781 0.800781 L 8 0.800781 L 8 9.9375 C 5.839844 11.273438 4.398438 13.667969 4.398438 16.398438 C 4.398438 20.601562 7.800781 24 12 24 C 16.199219 24 19.601562 20.601562 19.601562 16.398438 C 19.601562 13.125 17.949219 11.058594 16 9.921875 Z M 18.335938 18.871094 L 16.078125 16 L 18.054688 13.089844 C 18.515625 13.972656 18.800781 15.058594 18.800781 16.398438 C 18.800781 17.273438 18.636719 18.105469 18.335938 18.871094 Z M 10.359375 19.039062 C 10.28125 18.878906 10.160156 18.800781 10 18.800781 L 6.480469 19.121094 L 8.71875 16.238281 C 8.800781 16.078125 8.800781 15.921875 8.71875 15.761719 L 6.800781 12.878906 L 9.960938 13.199219 C 10.121094 13.199219 10.28125 13.121094 10.359375 13 L 12 10.039062 L 13.640625 13 C 13.71875 13.121094 13.878906 13.199219 14.039062 13.199219 L 17.199219 12.878906 L 15.28125 15.761719 C 15.160156 15.921875 15.160156 16.121094 15.28125 16.238281 L 17.519531 19.121094 L 14.039062 18.800781 C 13.878906 18.800781 13.71875 18.878906 13.640625 19.039062 L 12 22.640625 Z M 17.367188 12.058594 L 14.238281 12.359375 L 12.722656 9.648438 C 13.222656 9.714844 13.816406 9.84375 14.429688 10.0625 C 14.765625 10.191406 15.09375 10.34375 15.398438 10.519531 C 15.449219 10.550781 15.503906 10.570312 15.558594 10.578125 C 16.210938 10.941406 16.839844 11.421875 17.367188 12.058594 Z M 8.800781 0.800781 L 10 0.800781 L 10 5.601562 C 10 5.839844 10.160156 6 10.398438 6 C 10.640625 6 10.800781 5.839844 10.800781 5.601562 L 10.800781 0.800781 L 11.601562 0.800781 L 11.601562 6.398438 C 11.601562 6.640625 11.761719 6.800781 12 6.800781 C 12.238281 6.800781 12.398438 6.640625 12.398438 6.398438 L 12.398438 0.800781 L 13.199219 0.800781 L 13.199219 5.601562 C 13.199219 5.839844 13.359375 6 13.601562 6 C 13.839844 6 14 5.839844 14 5.601562 L 14 0.800781 L 15.199219 0.800781 L 15.199219 9.511719 C 14.09375 9.023438 12.953125 8.800781 12 8.800781 C 11.933594 8.800781 11.863281 8.800781 11.796875 8.804688 C 11.773438 8.804688 11.746094 8.804688 11.722656 8.804688 C 11.679688 8.808594 11.636719 8.808594 11.597656 8.8125 C 11.566406 8.8125 11.539062 8.8125 11.511719 8.816406 C 11.472656 8.820312 11.433594 8.820312 11.394531 8.824219 C 11.367188 8.824219 11.339844 8.828125 11.3125 8.832031 C 11.269531 8.835938 11.230469 8.839844 11.191406 8.84375 C 11.167969 8.84375 11.144531 8.847656 11.121094 8.851562 C 11.074219 8.855469 11.027344 8.863281 10.980469 8.867188 C 10.964844 8.871094 10.953125 8.871094 10.9375 8.875 C 10.183594 8.980469 9.464844 9.195312 8.800781 9.503906 Z M 8.535156 10.546875 C 8.554688 10.539062 8.574219 10.53125 8.601562 10.519531 C 9.445312 10.035156 10.367188 9.730469 11.324219 9.632812 L 9.800781 12.359375 L 6.757812 12.066406 C 7.257812 11.460938 7.855469 10.949219 8.535156 10.546875 Z M 6.023438 13.152344 L 7.921875 16 L 5.664062 18.871094 C 5.363281 18.105469 5.199219 17.273438 5.199219 16.398438 C 5.199219 15.222656 5.496094 14.117188 6.023438 13.152344 Z M 6.195312 19.945312 L 9.761719 19.601562 L 11.375 23.171875 C 9.179688 22.972656 7.285156 21.730469 6.195312 19.945312 Z M 12.644531 23.167969 L 14.238281 19.640625 L 17.800781 19.953125 C 16.714844 21.726562 14.832031 22.964844 12.644531 23.167969 Z M 12.644531 23.167969"/>
</svg>

<svg xmlns="http://www.w3.org/2000/svg" width="32" height="32" viewBox="0 0 24 24">
    <path d="M12 14c-1.121 0-2 .879-2 2s.879 2 2 2 2-.879 2-2-.879-2-2-2zm0 3.2c-.68 0-1.2-.52-1.2-1.2 0-.68.52-1.2 1.2-1.2.68 0 1.2.52 1.2 1.2 0 .68-.52 1.2-1.2 1.2zm0 0"/>
    <path d="M16 9.922V.8h1.2c.241 0 .402-.16.402-.403 0-.238-.16-.398-.403-.398H6.801c-.242 0-.403.16-.403.398 0 .243.16.403.403.403H8v9.136a7.588 7.588 0 0 0-3.602 6.461A7.598 7.598 0 0 0 12 24c4.2 0 7.602-3.398 7.602-7.602 0-3.273-1.653-5.34-3.602-6.476zm2.336 8.95L16.078 16l1.977-2.91c.46.883.746 1.969.746 3.308 0 .875-.164 1.707-.465 2.473zm-7.977.167c-.078-.16-.199-.238-.359-.238l-3.52.32 2.239-2.883a.492.492 0 0 0 0-.476L6.8 12.879l3.16.32c.16 0 .32-.078.398-.199L12 10.04 13.64 13c.079.121.239.2.4.2l3.16-.321-1.919 2.883c-.12.16-.12.36 0 .476l2.239 2.883-3.48-.32c-.161 0-.321.078-.4.238L12 22.641zm7.008-6.98l-3.129.3-1.515-2.71c.5.066 1.093.195 1.707.414.336.128.664.28.968.457a.42.42 0 0 0 .16.058 6.313 6.313 0 0 1 1.81 1.48zM8.801.8H10v4.8c0 .239.16.399.398.399.243 0 .403-.16.403-.398V.8h.8v5.597c0 .243.16.403.399.403.238 0 .398-.16.398-.403V.801h.801v4.8c0 .239.16.399.403.399.238 0 .398-.16.398-.398V.8h1.2v8.71c-1.106-.488-2.247-.71-3.2-.71-.066 0-.137 0-.203.004h-.074c-.043.004-.086.004-.125.008-.032 0-.059 0-.086.003-.04.004-.078.004-.117.008a.583.583 0 0 0-.082.008l-.122.012a.43.43 0 0 0-.07.008c-.047.003-.094.011-.14.015-.016.004-.028.004-.043.008a7.55 7.55 0 0 0-2.137.629zm-.266 9.746l.067-.027a6.86 6.86 0 0 1 2.722-.887l-1.523 2.726-3.043-.293a6.773 6.773 0 0 1 1.777-1.52zm-2.512 2.605L7.922 16l-2.258 2.871a6.739 6.739 0 0 1-.465-2.473c0-1.175.297-2.28.824-3.246zm.172 6.793l3.567-.343 1.613 3.57a6.79 6.79 0 0 1-5.18-3.227zm6.45 3.223l1.593-3.527 3.563.312a6.784 6.784 0 0 1-5.156 3.215zm0 0"/>
</svg>
